X:1
T:Title
%%score { ( 1 4 ) | ( 2 3 ) }
L:1/8
M:4/4
K:G
V:1 treble nm="Grand Piano"
V:4 treble 
V:2 treble 
V:3 treble 
V:1
 z4 z2[Q:1/4=112] B2 | c2 B2 A2 G2 | e2 d2 B2 A2 | G2 F2 E2 D2 |[M:7/8] E2 F2 G3 | %5
[M:3/4] [B,D]>[B,D] [B,D]4 | [B,D]2 [CE]2 D2 | [D,G,B,]2 [G,B,D]4 | B>B B4 | B2 c2 B2 | %10
[M:2/4] G2 B2- |[M:1/4] B2 | G>G |[M:3/4] G4 G2 | G4 [CFA]>[CFA] | [CFA]4 [^CGA]2 | [DFA]4 [DGB]2 | %17
 G2- [GB]2 G2 |[M:2/4] B4 |[M:1/4] G2 |[M:3/4] A2 z2 z2 | D4 z2 |[M:4/4] E2 ^D2 E2 [DF]2 | %23
 G2 F2 E4 | B2 _B2 =B2 [Ge]2 | [Ge]2 [F^d]2 [Ge]4 | [GB]2 [FA][EG] [^DF]2 [EG][B,F] | [B,E]6 z2 | %28
 [B,D]4 [CE]2 [B,D]2 | [DG]2 A2 G4 | G4 B2 G2 | [FA]2 [GB]2 [FA]4 | B2 G2 [EGc]2 [CEA]2 | %33
 z4 [DF]4 |[M:3/4] [G,B,DG]6 |] %35
V:2
 z4 z2 D2 | E2 D2 C2 B,2 | C2 B,2 D2 C2 | B,2 A,2 G,2 F,2 |[M:7/8] G,2 A,2 B,3 | %5
[M:3/4] [G,,G,]>[G,,G,] [G,,G,]4 | [G,,G,]2 z2 B,2 | G,,2 G,,4 | D>D D4 | D2 E2 D2 | %10
[M:2/4] B,2 D2- |[M:1/4] D2 | [G,B,D]>[G,B,D] |[M:3/4] [G,B,D]4 [G,CE]2 | [G,B,D]4 D,>D, | %15
 D,4 A,,2 | D,4 G,2 | z2[K:treble] D2 [G,B,]2 |[M:2/4] [G,DG]4 |[M:1/4][K:bass] [G,B,D]2 | %20
[M:3/4] [C,C]4 [E,G,C]2 | [G,B,]4 z2 |[M:4/4] [E,G,B,]4 [E,G,B,]2 [B,,B,]2 | %23
 [B,E]2 [A,B,]2 [E,G,B,]4 | [E,G,E]4 [E,G,E]2 [E,B,]2 | B,2- [B,,B,]2 [E,B,]4 | %26
 [E,E]2 [E,B,][E,B,] [B,,B,]2 [B,,B,][^D,A,] | [E,G,]6 z2 | [G,,G,]4 [G,,G,]2 [G,,G,]2 | %29
 [B,,G,]2 [D,CD]2[K:treble] [G,B,D]4 | [G,B,D]4 [G,DG]2[K:bass] [E,^C]2 | [D,D]2 [D,D]2 [D,D]4 | %32
 [DG]2 B,2[K:bass] C,2 C,2 | D,4 z2 C2 |[M:3/4] G,,6 |] %35
V:3
 x8 | x8 | x8 | x8 |[M:7/8] x7 |[M:3/4] x6 | z2 [G,,G,]4 | x6 | x6 | x6 |[M:2/4] x4 |[M:1/4] x2 | %12
 x2 |[M:3/4] x6 | x6 | x6 | x6 | G,4[K:treble] z2 |[M:2/4] x4 |[M:1/4][K:bass] x2 |[M:3/4] x6 | %21
 x6 |[M:4/4] x8 | E,4 z4 | x8 | E,2 z2 z4 | x8 | x8 | x8 | x4[K:treble] x4 | x6[K:bass] x2 | x8 | %32
 G,4[K:bass] z4 | z4 D,4 |[M:3/4] x6 |] %35
V:4
 x8 | x8 | x8 | x8 |[M:7/8] x7 |[M:3/4] x6 | x6 | x6 | x6 | x6 |[M:2/4] x4 |[M:1/4] x2 | x2 | %13
[M:3/4] x6 | x6 | x6 | x6 | [Ec]2 z2 z2 |[M:2/4] x4 |[M:1/4] x2 |[M:3/4] E2- [EG]2 E2 | x6 | %22
[M:4/4] x8 | x8 | x8 | x8 | x8 | x8 | x8 | x8 | x8 | x8 | x8 | [B,DG]4 A,2 z2 |[M:3/4] x6 |] %35

